X:1
T:James Gibb editions
T:Laetitia sempiterna - Handl
T:#
%%score [ 1 2 3 4 ]
L:1/8
Q:1/4=90
M:4/4
K:Eb
V:1 treble nm="Soprano" snm="S"
V:2 treble nm="Alto" snm="A"
V:3 treble-8 nm="Tenor" snm="T"
V:4 bass nm="Bass" snm="B"
V:1
"^Laetitia sempiterna""^Jacob Handl\n(1550-91)" z2 | E2 G>A B2 F>G | A2 E2 G2 AG- | GBcd e2 dB | %4
w: |Lae- ti- ti- a sem- pi-|ter- na su- per ca\-|* pi- ta e- o- rum, lae-|
[M:4/4] d>d e2 E2 F2 | _D2 E2 AA c2 | B c2 B2 =ABF | G>A B2 B2 d>f | f f2 c c2 B2 | c2 B2 c3 B | %10
w: ti- ti- a sem- pi-|ter- na su- per ca-|pi- ta e- o- rum, lae-|ti- ti- a, lae- ti- ti-|a sem- pi- ter- na|su- per ca- pi-|
 c3 B =A2 B2 || z8 | z8 | B>B BB B>B BA | BBcd e2 d2 | B>B BB B>B BA | BBcB B2 B2 | G>F GF G>F GF | %18
w: ta e- o- rum.|||Gau- di- um et ex- sul- ta- ti-|o- nem ob- ti- ne- bunt,|gau- di- um et ex- sul- ta- ti-|o- nem ob- ti- ne- bunt,|gau- di- um et ex- sul- ta- ti-|
 GFEE D2 E2 | B>B BB B>B B=A | BBcd e2 d2- | d2 z2 z4 | z8 | B>B BB B>B B=A | BBcd e2 d2 | %25
w: o- nem ob- ti- ne- bunt,|gau- di- um et ex- sul- ta- ti-|o- nem ob- ti- ne- bunt,|||gau- di- um et ex- sul- ta- ti-|o- nem ob- ti- ne- bunt,|
 B>B BB B>B BA | BBcB B2 B2 | G>F GF G>F[Q:1/4=89] G[Q:1/4=87]F | %28
w: gau- di- um et ex- sul- ta- ti-|o- nem ob- ti- ne- bunt,|gau- di- um et ex- sul- ta- ti-|
[Q:1/4=86] G[Q:1/4=84]F[Q:1/4=83]E[Q:1/4=82]E[Q:1/4=79] D2[Q:1/4=77] E2- |[Q:1/4=76] E4 |] %30
w: o- nem ob- ti- ne- bunt.||
V:2
 B,2 | C>D E2 B,>C D2 | C2 z E2 C (E>D | C)G,GB =A2 B2- |[M:4/4] B2 z E G>A B2 | F>G A2 E E2 A | %6
w: Lae-|ti- ti- a sem- pi- ter-|na su- per ca\- *|* pi- ta e- o- rum,|* lae- ti- ti- a|sem- pi- ter- na su- per|
 GAAF F4 | E2 z B, D>F F2 | F>G A4 G2 | A2 G2 A3 G | A3 F F2 F2 || F>F FF F>F FE | FFGE F2 G2 | %13
w: ca- pi- ta e- o-|rum, lae- ti- ti- a|sem- pi- ter- na|su- per ca- pi-|ta e- o- rum.|Gau- di- um et ex- sul- ta- ti-|o- nem ob- ti- ne- bunt,|
 G>F GF G>F GA | GFGB =A2 B2 | E>F EF E>F EC | EFEE D2 E2 | E>D ED E>D EC | EB,CB, B,2 G,2 | %19
w: gau- di- um et ex- sul- ta- ti-|o- nem ob- ti- ne- bunt,|gau- di- um et ex- sul- ta- ti-|o- nem ob- ti- ne- bunt,|gau- di- um et ex- sul- ta- ti-|o- nem ob- ti- ne- bunt,|
 G>F GF G>F GF | GFGB A2 B2 | F>F FF F>F FE | FFGE F2 G2 | G>F GF G>F GF | GFGB A2 B2 | %25
w: gau- di- um et ex- sul- ta- ti-|o- nem ob- ti- ne- bunt,|gau- di- um et ex- sul- ta- ti-|o- nem ob- ti- ne- bunt,|gau- di- um et ex- sul- ta- ti-|o- nem ob- ti- ne- bunt,|
 E>F EF E>F EC | EFEE D2 E2 | E>D ED E>D EC | EB,CB, B,2 B,2- | B,4 |] %30
w: gau- di- um et ex- sul- ta- ti-|o- nem ob- ti- ne- bunt,|gau- di- um et ex- sul- ta- ti-|o- nem ob- ti- ne- bunt.||
V:3
 z2 | z2 E2 G>A B2 | F>G AE e2 ce- | edcB c2 B2- |[M:4/4][K:treble-8] B2 z2 B2 d>e | %5
w: |Lae- ti- ti- a|sem- pi- ter- na su- per ca\-|* pi- ta e- o- rum,|* lae- ti- ti-|
 f2 c>c c2 ce- | eeed cc B2- | B2 B4 z B | d>e f2 c>d e2 | e2 e2 e2 e2 | e e2 d c2 B2 || %11
w: a sem- pi- ter- na su\-|* per ca- pi- ta e- o\-|* rum, lae-|ti- ti- a sem- pi- ter-|na su- per ca-|pi- ta e- o- rum.|
 d>c dc d>c de | dcBc d2 e2 | e>d ed e>d ef | edcB c2 B2 | e>d ed G>F GF | GBEG F2 G2 | %17
w: Gau- di- um et ex- sul- ta- ti-|o- nem ob- ti- ne- bunt,|gau- di- um et ex- sul- ta- ti-|o- nem ob- ti- ne- bunt,|gau- di- um et ex- sul- ta- ti-|o- nem ob- ti- ne- bunt,|
 B>B BB B>B BA | BBFG F2 E2 | e>d ed e>d ef | edcB c2 B2 | d>c dc d>c de | dcBc d2 e2 | %23
w: gau- di- um et ex- sul- ta- ti-|o- nem ob- ti- ne- bunt,|gau- di- um et ex- sul- ta- ti-|o- nem ob- ti- ne- bunt,|gau- di- um et ex- sul- ta- ti-|o- nem ob- ti- ne- bunt,|
 e>d ed e>d ef | edcB c2 B2 | G>F GF G>F GF | GBEG F2 G2 | B>B BB B>B BA | BBFG F2 E2- | E4 |] %30
w: gau- di- um et ex- sul- ta- ti-|o- nem ob- ti- ne- bunt,|gau- di- um et ex- sul- ta- ti-|o- nem ob- ti- ne- bunt,|gau- di- um et ex- sul- ta- ti-|o- nem ob- ti- ne- bunt.||
V:4
 z2 | z8 | z8 | z8 |[M:4/4] B,,2 C,>D, E,2 B,,>C, | _D,2 A,, A,2 A, A,2 | E, A,2 B, F,2 B,,2 | %7
w: ||||Lae- ti- ti- a sem- pi-|ter- na su- per ca-|pi- ta e- o- rum,|
 E,2 G,>A, B,2 B,2- | B,2 F,2 A,2 E,2 | A,2 E,2 A,3 E, | A,3 B, F,2 B,,2 || B,>=A, B,A, B,>A, B,C | %12
w: lae- ti- ti- a sem\-|* pi- ter- na|su- per ca- pi-|ta e- o- rum,|Gau- di- um et ex- sul- ta- ti-|
 B,A,G,A, F,2 E,2- | E,2 z2 z4 | z8 | E,>D, E,D, E,>D, E,F, | E,D,C,E, B,,2 E,2 | %17
w: o- nem ob- ti- ne- bunt,|||gau- di- um et ex- sul- ta- ti-|o- nem ob- ti- ne- bunt,|
 E,>B,, E,B,, E,>B,, E,F, | E,D,C,E, B,,2 E,2- | E,2 z2 z4 | z8 | B,>=A, B,A, B,>A, B,C | %22
w: gau- di- um et ex- sul- ta- ti-|o- nem ob- ti- ne- bunt,|||gau- di- o et ex- sul- ta- ti-|
 B,A,G,A, F,2 E,2- | E,2 z2 z4 | z8 | E,>D, E,D, E,>D, E,F, | E,D,C,E, B,,2 E,2 | %27
w: o- nem ob- ti- ne- bunt,|||gau- di- um et ex- sul- ta- ti-|o- nem ob- ti- ne- bunt,|
 E,>B,, E,B,, E,>B,, E,F, | E,D,C,E, B,,2 E,2- | E,4 |] %30
w: gau- di- um et ex- sul- ta- ti-|o- nem ob- ti- ne- bunt.||

